X:0909
T:Mr. Davidson's Strathsy.
M:C|
L:1/8
Q:1/4=120
I: :: (1) :| (2) ||
Z:Jack Campin * www.campin.me.uk * 2009
K:G
B|F2   (c/B/A/G/) EAA<B|G2   (c/B/A/G/) AB`A<g|   GG   (c/B/A/G/) EA`AB|e/d/c/B/ c/B/A/G/  DGG:|
B|de/d/ Bd        f>efg|de/d/ Bd        e<AA<B|[1 de/d/ Bd        f>efg|d>B     (c/B/A/G/) DGG:|\
                                               [2 de/d/ Bd        e>fge|dB      (c/B/A/G/) DGG|]
<end>
<start>
